assets/icons/informations/videocam.svg

<svg viewBox="0 0 24 24" xmlns="http://www.w3.org/2000/svg">
<path d="M4 20C3.45 20 2.97933 19.8043 2.588 19.413C2.196 19.021 2 18.55 2 18V6C2 5.45 2.196 4.97933 2.588 4.588C2.97933 4.196 3.45 4 4 4H16C16.55 4 17.021 4.196 17.413 4.588C17.8043 4.97933 18 5.45 18 6V10.5L21.15 7.35C21.3 7.2 21.4793 7.16233 21.688 7.237C21.896 7.31233 22 7.46667 22 7.7V16.3C22 16.5333 21.896 16.6873 21.688 16.762C21.4793 16.8373 21.3 16.8 21.15 16.65L18 13.5V18C18 18.55 17.8043 19.021 17.413 19.413C17.021 19.8043 16.55 20 16 20H4Z" fill="inherit"/>
</svg>

<svg viewBox="0 0 24 24" xmlns="http://www.w3.org/2000/svg"><path d="M4 20a2 2 0 0 1-1.4-.6A2 2 0 0 1 2 18V6c0-.5.2-1 .6-1.4A2 2 0 0 1 4 4h12c.6 0 1 .2 1.4.6.4.4.6.9.6 1.4v4.5l3.1-3.2h.6c.2 0 .3.2.3.4v8.6c0 .2-.1.4-.3.5-.2 0-.4 0-.6-.2L18 13.5V18c0 .6-.2 1-.6 1.4a2 2 0 0 1-1.4.6H4Z" fill="inherit"/></svg>
